modules/hawcons-stroke/icons/smirking-face.svg

<?xml version="1.0" encoding="UTF-8" standalone="no"?>
<svg width="32px" height="32px" viewBox="0 0 32 32" version="1.1" xmlns="http://www.w3.org/2000/svg" xmlns:xlink="http://www.w3.org/1999/xlink" xmlns:sketch="http://www.bohemiancoding.com/sketch/ns">
    <!-- Generator: Sketch 3.0.3 (7891) - http://www.bohemiancoding.com/sketch -->
    <title>icon 13 smirking face</title>
    <desc>Created with Sketch.</desc>
    <defs></defs>
    <g id="Page-1" stroke="none" stroke-width="1" fill="none" fill-rule="evenodd" sketch:type="MSPage">
        <g id="icon-13-smirking-face" sketch:type="MSArtboardGroup" fill="#929292">
            <path d="M14,12 C14.5522848,12 15,12.4477152 15,13 C15,13.5522848 14.5522848,14 14,14 C13.4477152,14 13,13.5522848 13,13 L11,13 L11,12 L14,12 L14,12 Z M21,12 C21.5522848,12 22,12.4477152 22,13 C22,13.5522848 21.5522848,14 21,14 C20.4477152,14 20,13.5522848 20,13 L18,13 L18,12 L21,12 L21,12 Z M16.5,29 C23.4035597,29 29,23.4035597 29,16.5 C29,9.59644029 23.4035597,4 16.5,4 C9.59644029,4 4,9.59644029 4,16.5 C4,23.4035597 9.59644029,29 16.5,29 L16.5,29 Z M16.5,28 C22.8512749,28 28,22.8512749 28,16.5 C28,10.1487251 22.8512749,5 16.5,5 C10.1487251,5 5,10.1487251 5,16.5 C5,22.8512749 10.1487251,28 16.5,28 L16.5,28 Z M15.5186768,22 L18.5077842,22 C19.3319123,22 20,21.3228912 20,20.5046844 L20,20 L21,20 C21,20 21,20.5 21,21 C21,22 20,23 19,23 L15.5186768,23 L12,23 L12,22 L15.5186768,22 L15.5186768,22 Z" id="smirking-face" sketch:type="MSShapeGroup"></path>
        </g>
    </g>
</svg>

<svg width="32" height="32" viewBox="0 0 32 32" xmlns="http://www.w3.org/2000/svg"><path d="M14 12a1 1 0 1 1-1 1h-2v-1h3zm7 0a1 1 0 1 1-1 1h-2v-1h3zm-4.5 17C23.404 29 29 23.404 29 16.5S23.404 4 16.5 4 4 9.596 4 16.5 9.596 29 16.5 29zm0-1C22.851 28 28 22.851 28 16.5S22.851 5 16.5 5 5 10.149 5 16.5 10.149 28 16.5 28zm-.981-6h2.989c.824 0 1.492-.677 1.492-1.495V20h1v1c0 1-1 2-2 2h-7v-1h3.519z" fill="#929292" fill-rule="evenodd"/></svg>
